!!!OTL: FREI UND UNERSCHUETTERLICH (GAUDEAMUS IGITUR)
!!!ARE: Europa, Mitteleuropa, Deutschland; Schweiz
!!!SCT: B0013
!!!YEM: Copyright 1995, estate of Helmut Schaffrath.
**kern
*ICvox
*Ivox
!! Mixed meters:  3/4; 4/4
*M3/4
*k[]
*C:
{8.c
16G
4G
4c
=1
8.A
16A
2A}
=2
{8B
8c
4d
4B
=3
8c
8e
4c
4r}
=4
{8.B
16c
4d
4d
=5
8.e
16c
4d
4d}
=6
{8.B
16c
4d
4d
=7
8e
8c
4d
4d}
=8
{8.c
16B
8A
8f
8e
8d
=9
*M4/4
4e
4d
2c}
=10
*M3/4
{8.c
16B
8A
8f
8e
8d
=11
4e
4d
4c
4r}
==
!!!AGN: politisch, national, Vaterlands - Lied, Studenten - Lied
!!!ONB: ESAC (Essen Associative Code) Database: BOEHME
!!!AMT: irregular
!!!AIN: vox
!!!EED: Helmut Schaffrath
!!!EEV: 1.0
*-
